images/blade.svg

<svg xmlns="http://www.w3.org/2000/svg" width="86" height="44" fill="none">
  <path fill="#000" d="M11 16H9v12h2v2h2v-2h2v-2h4v2h2v2h2v-2h2v-2h4v2h2v-2h8v2h2v2h4v-2h2v-2h8v2h2v-2h4v2h2v2h2v-2h2v-2h4v2h2v2h2v-2h2V16h-2v-2h-2v2h-2v2h-4v-2h-2v-2h-2v2h-2v2h-4v-2h-2v2h-8v-2h-2v-2h-4v2h-2v2h-8v-2h-2v2h-4v-2h-2v-2h-2v2h-2v2h-4v-2h-2v-2h-2v2Zm0 0h2v2h2v2h4v-2h2v-2h2v2h2v2h4v-2h2v2h8v-2h2v-2h4v2h2v2h8v-2h2v2h4v-2h2v-2h2v2h2v2h4v-2h2v-2h2v12h-2v-2h-2v-2h-4v2h-2v2h-2v-2h-2v-2h-4v2h-2v-2h-8v2h-2v2h-4v-2h-2v-2h-8v2h-2v-2h-4v2h-2v2h-2v-2h-2v-2h-4v2h-2v2h-2V16ZM42 9h-2v1h-2v2h-2v2h2v-2h2v-1h2v1h4v1h2v1h6v-1h2v-2h-2v1h-8v-1h2v-1h2V9h2V8h2V5h-2V4h-4v1h-2v1h-2v1h-2v2Zm0 0h2V8h2V7h2V6h4v1h-2v1h-2v1h-2v1h-4V9Z"/>
  <path fill="#000" d="M79 0H7v2H5v6h2v2H2v2H0v20h2v2h5v2H5v6h2v2h72v-2h2v-6h-2v-2h5v-2h2V12h-2v-2h-5V8h2V2h-2V0Zm0 2v6h-2v2h2v2h5v20h-5v2h-2v2h2v6H7v-6h2v-2H7v-2H2V12h5v-2h2V8H7V2h72Z"/>
</svg>

<svg width="86" height="44" viewBox="0 0 86 44" fill="none" xmlns="http://www.w3.org/2000/svg">
<path d="M11 16H9V28H11V30H13V28H15V26H19V28H21V30H23V28H25V26H29V28H31V26H39V28H41V30H45V28H47V26H55V28H57V26H61V28H63V30H65V28H67V26H71V28H73V30H75V28H77V16H75V14H73V16H71V18H67V16H65V14H63V16H61V18H57V16H55V18H47V16H45V14H41V16H39V18H31V16H29V18H25V16H23V14H21V16H19V18H15V16H13V14H11V16ZM11 16H13V18H15V20H19V18H21V16H23V18H25V20H29V18H31V20H39V18H41V16H45V18H47V20H55V18H57V20H61V18H63V16H65V18H67V20H71V18H73V16H75V28H73V26H71V24H67V26H65V28H63V26H61V24H57V26H55V24H47V26H45V28H41V26H39V24H31V26H29V24H25V26H23V28H21V26H19V24H15V26H13V28H11V16Z" fill="black"/>
<path d="M42 9H40V10H38V12H36V14H38V12H40V11H42V12H46V13H48V14H54V13H56V11H54V12H46V11H48V10H50V9H52V8H54V5H52V4H48V5H46V6H44V7H42V9ZM42 9H44V8H46V7H48V6H52V7H50V8H48V9H46V10H42V9Z" fill="black"/>
<path d="M79 0H7V2H5V8H7V10H2V12H0V32H2V34H7V36H5V42H7V44H79V42H81V36H79V34H84V32H86V12H84V10H79V8H81V2H79V0ZM79 2V8H77V10H79V12H84V32H79V34H77V36H79V42H7V36H9V34H7V32H2V12H7V10H9V8H7V2H79Z" fill="black"/>
</svg>
